!!!OTL: Buchsbaum und Felbinger. / b. Andere Art.
!!!ARE: Europa, Mitteleuropa, Deutschland
!!!SCT: A0273B
!!!TXL: @@DE
!!!YEM: Copyright 1995, estate of Helmut Schaffrath.
**kern	**text
!! Mixed meters:  6/2; 4/2
*M4/2	*
*met(c|)	*
*clefC1	*
*k[]	*
*G:	*
=1	=1
2ryy	.
{2g	3._Der
2g	Fel-
2g	-ber
=2	=2
1a	ſprach:
1b	'ich
=3	=3
*M6/2	*
1cc	bin
2cc	ſo
1cc}	fein,
{2cc	auß
=4	=4
*M4/2	*
1cc	mir
1cc	macht
=5	=5
*M6/2	*
*lig	*
2.b	man
4a	.
*Xlig	*
2b	die
1a	lan-
2g	-gen
=6	=6
*M4/2	*
0a	ʒeun,
=7	=7
2r}	.
{2a	wol
2f	vmb
2f	das
=8	=8
1e	korn
2e	vnd
2.d	vmb
=9	=9
.	.
4c	.
4d	.
4e	.
2f	.
2f	den
=10	=10
0g	wein,
=11	=11
1r}	.
{1b	da-
=12	=12
2.cc	-von
4b	man
2a	ſich
2g	thut
=13	=13
!LO:TX:a:t=P:0r in the source:problem	!
!LO:N:vis=0	!
1a	ne-
1gll}	-ren.'
==	==
!!!GTL: Raethsel-, Wett-, Wunsch- und Luegenlieder
!!!AGN: Romanze, Ballade, Lied
!! Schmeltzel Quodl.XI 1544
!!!ONB: ESAC (Essen Associative Code) Database: ALTDEU
!!!AMT: irregular
!!!AIN: vox
!!!EED: Helmut Schaffrath
!!!EEV: 1.0
!!!RDF**kern: l = terminal long
!!!URL-scan: https://rosdok.uni-rostock.de/mcrviewer/recordIdentifier/rosdok_ppn738218359/iview2/phys_0429.iview2?x=-495.6391625615763&y=711.5364532242529&scale=0.4629418472063854&rotation=0&layout=singlePageLayout&logicalDiv=log_0011
!!!ENC: Anna Maria Matuszewska
!!!EEV: 2024/11/03
*-	*-
